X:1
T:Devizes, CM
T:Devizes, CM
T:Isaac Tucker, 1810
T:Public Domain Courtesy of the Cyber Hymnal™
C:Isaac Tucker, 1810
Z:Public Domain
Z:Courtesy of the Cyber Hymnal™
%%score ( 1 2 ) ( 3 4 )
L:1/8
M:4/4
K:A
V:1 treble 
V:2 treble 
V:3 bass 
V:4 bass 
V:1
 [EA]4 [EA]2 [GB]2 | [Ac]4 [Ad]4 | ([Ac]2 [EB]2) ([EA]2 [DG]2) | [EA]6 [GB]2 | [Ac]4 [Ae]4 | %5
 (d2 B2) (c2 A2) | [GB]8 | [Ge]4 [Ae]2 [Ae]2 | [Ad]4 [Ad]4 | ([Ac]2 [GB]2) ([FA]2 [EG]2) | %10
 A3 E A3 B | [Ac]4 z2 [Bd]2 | [ce]4 [df]4 | ([ce]2 [Bd]2) ([Ac]2 [GB]2) | [Ac]4 (c2 d2) | %15
 [Ae]4 [Bf]4 | ([Ae]2 [Gd]2) ([Fc]2 [EB]2) | [EA]8 |] %18
V:2
 x8 | x8 | x8 | x8 | x8 | A4 A4 | x8 | x8 | x8 | x8 | E8 | x8 | x8 | x8 | x4 E4 | x8 | x8 | x8 |] %18
V:3
 [A,C]4 [A,E]2 [G,E]2 | [A,E]4 [D,F]4 | (E2 D2) (C2 B,2) | [A,,C]6 [E,E]2 | [A,E]4 [C,C]4 | %5
 [D,F]4 [A,,E]4 | [E,E]8 | [E,B,]4 [A,C]2 [A,C]2 | [D,F]4 [D,F]4 | (E2 D2) (C2 B,2) | C3 B, C3 D | %11
 [A,,E]4 z4 | z8 | z8 | z4 A,2 B,2 | [A,C]4 [D,D]4 | (C2 B,2) (A,2 G,2) | [A,,A,]8 |] %18
V:4
 x8 | x8 | E,4 E,4 | x8 | x8 | x8 | x8 | x8 | x8 | E,4 E,4 | A,,8- | x8 | x8 | x8 | x4 A,4 | x8 | %16
 E,4 E,4 | x8 |] %18

